!!!COM: Brahms, Johannes
!!!CDT: 1833/05/07/-1897/04/03/
!!!OTL: Waltz in B-flat Major, Op.39 No.8
!!!ODT: 1865
!!!PDT: 1867
!!!OPS: Op. 39
!!!ONM: No. 8
!!!ONB: Chord and root analyses done by maunally
!!!ENC: Craig Sapp
!!!YEN: Copyright 2001 by Craig Stuart Sapp
!!!YEC: United States of America
**kern	**kern	**root	**harm
*lh	*rh	*	*
*Ipiano	*Ipiano	*Iclar	*
*k[b-e-]	*k[b-e-]	*k[b-e-]	*k[b-e-]
*M3/4	*M3/4	*M3/4	*M3/4
*MM172	*MM172	*MM172	*MM172
*>[I,A,A,B,B1,B,B2]	*>[I,A,A,B,B1,B,B2]	*>[I,A,A,B,B1,B,B2]	*>[I,A,A,B,B1,B,B2]
*>I	*>I	*>I	*>I
8r	8f	4.r	.
4r	8ff	.	.
.	[8ff	.	.
=1	=1	=1	=1
*>A	*>A	*>A	*>A
*B-:	*B-:	*B-:	*B-:
4BBB-'	4.dd 4.ff] 4.ddd	2.BB-	I
4r	.	.	.
.	8ee- 8gg 8eee-	.	.
4F' 4d'	4dd 4ff 4ddd	.	.
=2	=2	=2	=2
4BBB-'	4.cc 4.ee- 4.ccc	2.CC	ii7d
4r	.	.	.
.	8dd 8ff 8ddd	.	.
4E-' 4c'	4cc 4ee- 4ccc	.	.
=3	=3	=3	=3
4BBB-'	4.b- 4.dd 4.bb-	2.BB-	I
4r	.	.	.
.	8f 8cc 8ff	.	.
4D' 4B-'	4d 4b- 4dd	.	.
=4	=4	=4	=4
4BBB-'	4.f 4.dd 4.ff	2BB-	I
4r	.	.	.
.	8g 8ee- 8gg	.	.
4F' 4c'	4a 4cc 4aa	4FF	V
=5	=5	=5	=5
4BBB-'	4.b- 4.dd 4.bb-	2.BB-	I
4r	.	.	.
.	8f 8cc 8ff	.	.
4D' 4B-'	4d 4b- 4dd	.	.
=6	=6	=6	=6
4BBB-'	4.f 4.dd 4.ff	2BB-	I
4r	.	.	.
.	8g 8ee- 8gg	.	.
4F' 4c'	4a 4cc 4aa	4FF	V
=7	=7	=7	=7
4BBB-'	4.b- 4.dd 4.bb-	2.BB-	I
4r	.	.	.
.	8cc 8ff 8ccc	.	.
4F' 4B-' 4d'	4dd 4bb- 4ddd	.	.
=8	=8	=8	=8
4AAA-' 4AA-'	4.cc 4.ff 4.ccc	2FF	Vb
8r	.	.	.
8F 8f	8ff 8fff	.	.
4GGG' 4GG'	4een 4bb- 4ddd- 4eeen	4EEn	viio7b/V
=9	=9	=9	=9
4FFF' 4FF'	4.ff 4.aa 4.fff	2.FF	V
4r	.	.	.
.	8cc 8ccc	.	.
4F: 4A: 4c: 4f:	4ff 4aa	.	.
=10	=10	=10	=10
*b-:	*b-:	*b-:	*b-:
4FF'	4.dd- 4.bb- 4.ddd-	2BB-	ic
4r	.	.	.
.	8ff 8fff	.	.
4F: 4B-: 4d-: 4g:	4een 4bb- 4ddd- 4eeen	4EEn	viiD7c/V
=11	=11	=11	=11
4FF'	2.ff 2.aa 2.ccc 2.fff	2.FF	V
4r	.	.	.
4F: 4A: 4c: 4f:	.	.	.
=12	=12	=12	=12
4FFF' 4FF'	4r	2.FF	V
4r	8r	.	.
.	8f	.	.
4F	8ff	.	.
.	[8ff	.	.
=13:|!	=13:|!	=13:|!	=13:|!
*>B	*>B	*>B	*>B
*D-:	*D-:	*D-:	*D-:
4DD-'	4.ff] 4.aa- 4.fff	2.DD-	I
4r	.	.	.
.	8gg- 8bb- 8ggg-	.	.
4A-' 4f'	4ff 4aa- 4fff	.	.
=14	=14	=14	=14
4DD-'	4.ee- 4.gg- 4.eee-	2.EE-	ii7d
4r	.	.	.
.	8ff 8aa- 8fff	.	.
4G-' 4e-'	4ee- 4gg- 4eee-	.	.
=15	=15	=15	=15
4DD-'	4.dd- 4.ff 4.ddd-	2.DD-	I
4r	.	.	.
.	8a- 8ee- 8aa-	.	.
4F' 4d-'	4f 4dd- 4ff	.	.
=16	=16	=16	=16
4DD-'	4.a- 4.ff 4.aa-	2DD-	I
4r	.	.	.
.	8b- 8gg- 8bb-	.	.
4A-' 4e-'	4cc 4ee- 4ccc	4AA-	V
=17	=17	=17	=17
4DD-'	4.dd- 4.ff 4.ddd-	2.DD-	I
4r	.	.	.
.	8a- 8ee- 8aa-	.	.
4F' 4d-'	4f 4dd- 4ff	.	.
=18	=18	=18	=18
4DD-'	4.a- 4.ff 4.aa-	2DD-	I
4r	.	.	.
.	8b- 8gg- 8bb-	.	.
4A-' 4e-'	4cc 4ee- 4ccc	4AA-	V
=19	=19	=19	=19
4DD-'	4.dd- 4.ff 4.ddd-	2.DD-	I
4r	.	.	.
.	8ee- 8aa- 8eee-	.	.
4A-' 4d-' 4f'	[4ff 4ddd- [4fff	.	.
=20	=20	=20	=20
4CC 4C	4.ff] 4.aa 4.eee- 4.fff]	2.FF	V7c/IV
4r	.	.	.
.	8gg- 8ggg-	.	.
4F: 4An: 4e-: 4f:	[4ff 4aa 4eee- [4fff	.	.
=21	=21	=21	=21
4BBB- 4BB-	4.ff] 4.aa- 4.ddd 4.fff]	2.BB-	V7/II
4r	.	.	.
.	8ggn 8bb- 8gggn	.	.
4F: 4B: 4dn: 4a-:	4ff 4aa- 4ddd 4fff	.	.
=22	=22	=22	=22
*E-:	*E-:	*E-:	*E-:
4BBB- 4BB-	4.ee- 4.gg 4.eee-	2.EE-	Ic
4r	.	.	.
.	8ff 8aa- 8fff	.	.
4G: 4B-: 4e-: 4g:	4ee- 4gg 4eee-	.	.
=23	=23	=23	=23
4BBB- 4BB-	4.dd 4.ff 4.ddd	2.BB-	V
4r	.	.	.
.	8b- 8bb-	.	.
4F 4B- 4d	4f 4ff	.	.
=24	=24	=24	=24
4AAA- 4AA-	4.b- 4.dd 4.bb-	2BB-	V7
4r	.	.	.
.	8cc 8ee- 8ccc	.	.
4B- 4d 4f	4dd 4ff 4ddd	4BB-	V
=25	=25	=25	=25
4AAA- 4AA-	4.ee- 4.bb- 4.eee-	2.EE-	Ib
4r	.	.	.
.	8b- 8bb-	.	.
4B- 4e-	4g 4gg	.	.
=26	=26	=26	=26
*B-:	*B-:	*B-:	*B-:
4EEE- 4EE-	4.dd 4.bb- 4.ddd	2.EE-	IV7
4r	.	.	.
.	8ee- 8eee-	.	.
4G: 4B-: 4e-: 4b-:	4gg 4bb- 4ggg	.	.
=27	=27	=27	=27
4FFF' 4FF	4.dd 4.ff 4.ddd	2.BB-	Ic
4r	.	.	.
.	8ee- 8gg 8eee-	.	.
4F' 4B-' 4d' 4f'	4dd 4ff 4ddd	.	.
=28	=28	=28	=28
4FFF' 4FF'	4.cc 4.ee- 4.ccc	2.FF	V7
4r	.	.	.
.	8dd 8ff 8ddd	.	.
4F' 4A' 4e-' 4f'	4cc 4ee- 4ccc	.	.
=29	=29	=29	=29
4BBB-'	2.b- 2.dd 2.bb-	2.BB-	I
4r	.	.	.
4F' 4B-' 4d' 4f'	.	.	.
=30	=30	=30	=30
*>B1	*>B1	*>B	*>B
4BBB-'	4r	2.BB-	I
4r	8r	.	.
.	8f	.	.
4F'	8ff	.	.
.	[8ff	.	.
=31	=31:|!	=	=
*>B2	*>B2	*>B2	*>B2
4BBB-'	4r	2BB-	I
4r	4r	.	.
==	==	==	==
*-	*-	*-	*-
